src/icons/outline/metrics/plus-sign-circle.svg

<svg width="24" height="24" viewBox="0 0 24 24" fill="none" xmlns="http://www.w3.org/2000/svg">
<g clip-path="url(#clip0_4923_429)">
<path d="M12.0098 6.40723C12.3715 6.40723 12.665 6.70072 12.665 7.0625V11.3057H16.9082C17.27 11.3057 17.5635 11.5992 17.5635 11.9609C17.5635 12.3227 17.27 12.6162 16.9082 12.6162H12.665V16.9473C12.665 17.309 12.3715 17.6025 12.0098 17.6025C11.648 17.6025 11.3545 17.309 11.3545 16.9473V12.6162H7.11133C6.74955 12.6162 6.45605 12.3227 6.45605 11.9609C6.45606 11.5992 6.74955 11.3057 7.11133 11.3057H11.3545V7.0625C11.3545 6.69097 11.648 6.40726 12.0098 6.40723Z" fill="#3C3B44"/>
<path fill-rule="evenodd" clip-rule="evenodd" d="M12 1C18.0622 1 23 5.93778 23 12C23 18.0622 18.0622 23 12 23C5.93778 23 1 18.0622 1 12C1 5.93778 5.93778 1 12 1ZM12 2.4668C6.73956 2.4668 2.4668 6.73956 2.4668 12C2.4668 17.2604 6.73956 21.5332 12 21.5332C17.2604 21.5332 21.5332 17.2604 21.5332 12C21.5332 6.73956 17.2604 2.4668 12 2.4668Z" fill="#3C3B44"/>
</g>
<defs>
<clipPath id="clip0_4923_429">
<rect width="24" height="24" fill="white"/>
</clipPath>
</defs>
</svg>

<svg xmlns="http://www.w3.org/2000/svg" width="24" height="24" fill="none" viewBox="0 0 24 24"><g fill="currentColor" clip-path="url(#a)"><path d="M12.01 6.407c.361 0 .655.294.655.656v4.243h4.243a.655.655 0 0 1 0 1.31h-4.243v4.331a.655.655 0 0 1-1.31 0v-4.33H7.11a.655.655 0 0 1 0-1.311h4.244V7.063a.65.65 0 0 1 .655-.656"/><path fill-rule="evenodd" d="M12 1c6.062 0 11 4.938 11 11s-4.938 11-11 11S1 18.062 1 12 5.938 1 12 1m0 1.467C6.74 2.467 2.467 6.74 2.467 12S6.74 21.533 12 21.533 21.533 17.26 21.533 12 17.26 2.467 12 2.467" clip-rule="evenodd"/></g><defs><clipPath id="a"><path fill="currentColor" d="M0 0h24v24H0z"/></clipPath></defs></svg>
